X: 1
T: Church Street
M: 6/8
L: 1/8
R: jig
K: Dmix
cBc A2 D |  FAD GED | cBc A2 D | dcA GED :|
E3 c2 E | c2 E GED | E3 c2 e | dcA GED |
E3 c2 E | d2 E c2 E | E3 c2 e | dcA GED ||
A2 G FDF | FDF FED | A2 G FAD | ABc GED :|
